X: 7
T:Highland Mary
% Nottingham Music Database
P:A(AB)4
S:Ascot via Coventry MM
M:4/4
L:1/4
K:G
P:A
D|"G"GG "D7"G/2F/2E/2D/2|"G"GA/2B/2 "C"cB/2c/2|"G"dd "C"A/2c/2B/2A/2|\
"Am"GF "D7"D2|
"G"GG "D7"G/2F/2E/2D/2|"G"GA/2B/2 "C"cB/2c/2|"G"dd "D7"A/2c/2B/2A/2|"G"G2 G||
P:B
B/2c/2|"G"dd dc/2B/2|"C"cc cB/2c/2|"G"de d/2c/2B/2A/2|"Am"GF "D7"D2|
"G"GG "D7"G/2F/2E/2D/2|"G"GA/2B/2 "C"cB/2c/2|"G"dd "D7"A/2c/2B/2A/2|"G"G2 G||


